media/img/oval_logo.svg

<svg fill="none" height="28" viewBox="0 0 27 28" width="27" xmlns="http://www.w3.org/2000/svg"><g fill="#fff" fill-opacity=".7"><path d="m15.3482 14.0186c0 4.1992-3.3748 7.6033-7.53772 7.6033-4.16289 0-7.538019-3.4048-7.538019-7.6033 0-4.19842 3.374879-7.60356 7.538019-7.60356 4.16312 0 7.53772 3.40437 7.53772 7.60356z"/><path d="m23.6181 14.0185c0 3.9527-1.6874 7.1582-3.769 7.1582s-3.769-3.2055-3.769-7.1582c0-3.9526 1.6872-7.15815 3.7687-7.15815 2.0816 0 3.7691 3.20455 3.7691 7.15815"/><path d="m26.9995 14.0183c0 3.5406-.5934 6.4126-1.3256 6.4126-.7321 0-1.3253-2.8712-1.3253-6.4126s.5934-6.41259 1.3253-6.41259c.732 0 1.3256 2.87099 1.3256 6.41259z"/></g></svg>

<svg width="27" height="28" viewBox="0 0 27 28" fill="none" xmlns="http://www.w3.org/2000/svg">
<path d="M15.3482 14.0186C15.3482 18.2178 11.9734 21.6219 7.81048 21.6219C3.64759 21.6219 0.272461 18.2171 0.272461 14.0186C0.272461 9.82018 3.64734 6.41504 7.81048 6.41504C11.9736 6.41504 15.3482 9.81941 15.3482 14.0186Z" fill="white" fill-opacity="0.7"/>
<path d="M23.6181 14.0185C23.6181 17.9712 21.9307 21.1767 19.8491 21.1767C17.7675 21.1767 16.0801 17.9712 16.0801 14.0185C16.0801 10.0659 17.7673 6.86035 19.8488 6.86035C21.9304 6.86035 23.6179 10.0649 23.6179 14.0185" fill="white" fill-opacity="0.7"/>
<path d="M26.9995 14.0183C26.9995 17.5589 26.4061 20.4309 25.6739 20.4309C24.9418 20.4309 24.3486 17.5597 24.3486 14.0183C24.3486 10.4769 24.942 7.60571 25.6739 7.60571C26.4059 7.60571 26.9995 10.4767 26.9995 14.0183Z" fill="white" fill-opacity="0.7"/>
</svg>
